svg/justvector/podcast.svg

<svg xmlns="http://www.w3.org/2000/svg" viewBox="0 0 100 100" enable-background="new 0 0 100 100"><path d="m5.091 53.51c-.028-.612-.091-1.21-.091-1.826 0-25.784 20.15-46.684 45-46.684s45 20.9 45 46.684c0 .616-.068 1.215-.088 1.826-.935-24.927-20.652-44.854-44.912-44.854-24.26 0-43.978 19.927-44.909 44.854m44.909-27.888c15.16 0 27.527 12.291 28.425 27.788.034-.6.088-1.191.088-1.796 0-16.338-12.764-29.579-28.513-29.579s-28.513 13.241-28.513 29.579c0 .604.054 1.196.087 1.796.899-15.497 13.261-27.788 28.426-27.788m0 8.652c-5.158 0-9.343 4.342-9.343 9.692 0 5.35 4.186 9.691 9.343 9.691 5.156 0 9.342-4.342 9.342-9.691 0-5.35-4.186-9.692-9.342-9.692m0 20.19c-7.513 0-13.605.416-13.605 14.685 0 14.274 6.092 25.848 13.605 25.848s13.605-11.574 13.605-25.849c0-14.268-6.092-14.684-13.605-14.684"/></svg>

<?xml version="1.0" encoding="iso-8859-1"?>
<!-- Generator: Adobe Illustrator 15.0.0, SVG Export Plug-In . SVG Version: 6.00 Build 0)  -->
<!DOCTYPE svg PUBLIC "-//W3C//DTD SVG 1.1//EN" "http://www.w3.org/Graphics/SVG/1.1/DTD/svg11.dtd">
<svg version="1.1" id="Icons" xmlns="http://www.w3.org/2000/svg" xmlns:xlink="http://www.w3.org/1999/xlink" x="0px" y="0px"
	 width="100px" height="100px" viewBox="0 0 100 100" style="enable-background:new 0 0 100 100;" xml:space="preserve">
<path id="Podcast" d="M5.091,53.51C5.063,52.898,5,52.3,5,51.684C5,25.9,25.146,5,50,5s45,20.9,45,46.684
	c0,0.616-0.068,1.215-0.088,1.826C93.977,28.583,74.26,8.656,50,8.656C25.739,8.656,6.022,28.583,5.091,53.51z M50,25.622
	c15.164,0,27.527,12.291,28.425,27.788c0.034-0.6,0.088-1.191,0.088-1.796c0-16.338-12.764-29.579-28.513-29.579
	S21.487,35.276,21.487,51.614c0,0.604,0.054,1.196,0.087,1.796C22.473,37.913,34.835,25.622,50,25.622z M50,34.274
	c-5.158,0-9.343,4.342-9.343,9.692c0,5.35,4.186,9.691,9.343,9.691c5.156,0,9.342-4.342,9.342-9.691
	C59.342,38.616,55.156,34.274,50,34.274z M50,54.467c-7.513,0-13.605,0.416-13.605,14.685C36.395,83.426,42.487,95,50,95
	s13.605-11.574,13.605-25.849C63.605,54.883,57.513,54.467,50,54.467z"/>
</svg>
